!!!!SEGMENT: pl-sa--6-a-i-6--004_majewska-j--mazur.krn
!!!cenid: 18xx:367
!!!COM: Majewska, J.
!!!COM-rismID: pe41021472
!!!CDT:
!!!CNT:
!!!OTL: Mazur
!!!PDT:
!!!AGN: Secular; Mazurka
!!!YEC: Copyright 2022 Narodowy Instytut Fryderyka Chopina (https://polishscores.org)
!!!YEM: License CC-BY-4.0 (https://creativecommons.org/licenses/by/4.0)
!!!SMS-siglum: PL-SA
!!!SMS-shelfmark: 6/A I 6
!!!SMS-shelfwork: 004 W
!!!SMS-variant:
!!!SMS-altvar:
!!!NIFC-rismSourceID: 1001065403
!!!NIFC-rismChildID: 1001065403
!!!NIFC-islandoraID: none
!!!URL-pdf-islandora:
!!!URL-scan: https://bc.bdsandomierz.pl/dlibra/publication/1233/edition/1194/content @EN{Scan in the Sandomierz Diocese Digital Library} @PL{Skany w portalu Cyfrowa Biblioteka Diecezjalna w Sandomierzu}
!!!IIIF:
!!!ONB-nifc: Str. 1, s. 5-6
!!!AIN: 1 piano
!!!key:
**kern	**kern
*part1	*part1
*staff2	*staff1
*Ipiano	*Iempty
*I"Piano	*
*clefF4	*clefG2
*k[]	*k[]
*C:	*C:
*M3/8	*M3/8
=1	=1
!LO:TX:a:t=P:problem=omyłkowo wpisany klucz F3 zamiast F4	!
8cL 8G 8E 8C\	16eeLL 16cc\
.	16ggJJ 16ee\
8e 8c 8G\	8.cccL 8.ee\
8eJ 8c 8G\	.
.	16eeJk 16cc\
=2	=2
8G 8GG/	8ggL 8ee\
8fL 8d 8B 8G\	8ffJ 8dd\
!	!LO:N:vis=4
8fJ 8d 8G\	8dd 8b\
=3	=3
*rep	*
8G 8GG/	16g\LL
.	16b\
8fL 8d 8B 8G\	16dd\
.	16b\
8fJ 8d 8G\	16gg\
.	16ff\JJ
*Xrep	*
=4	=4
8cL 8C\	16ffLL 16dd\
.	16eeJJ 16cc\
8e 8c 8G\	4gg 4ee\
8eJ 8c 8G\	.
=5	=5
*rep	*
8cL 8C\	16ee\LL
.	16ff\
8e 8c 8G\	16gg\
.	16ff#X\
8eJ 8c 8G\	16ccc\
.	16ee\JJ
*Xrep	*
=6	=6
8G 8GG/	16ggLL 16ee\
.	16ffJJ 16dd\
8fL 8d 8B 8G\	4dd 4b\
8fJ 8d 8B 8G\	.
=7	=7
*rep	*
8G 8GG/	16.cc\LL
.	32b\K
8fL 8d 8B 8G\	16a\
.	16g\
8fJ 8d 8B 8G\	16.ee\
.	32g\JJk
*Xrep	*
=8	=8
!LO:TX:a:t=P:problem=mixed beam	!
8c\L	16dd\LL
.	16cc\JJ
8C/J	4cc\
8ryy	.
=9:|!|:	=9:|!|:
.	8qb/
8G 8GG/	16.bb\LL
.	32gg#X\JK
8GL 8D 8BB\	8.ff\
8GJ 8D 8BB\	.
.	16dd\Jk
=10	=10
*rep	*
8G 8GG/	16.b/LL
.	32g/JJk
8GL 8D 8BB\	4f/
8GJ 8D 8BB\	.
*Xrep	*
=11	=11
8C\L	16c/LL
.	16e/
8G 8E\	16g/
.	16cc/
8cJ 8G 8E\	16ee/
.	16gg/JJ
!!LO:LB:g=original
=12	=12
8GG/	16.ggLL 16.ee\
.	32ffJJk 32dd\
8GL 8D 8BB\	4dd 4b\
8GJ 8D 8BB\	.
=13	=13
*rep	*
8GG/	16b\LL
.	16bb\
8GL 8D 8BB\	16gg\
.	16ff\
8GJ 8D 8BB\	16dd\
.	16b\JJ
*Xrep	*
=14	=14
*rep	*
8GG/	16g/LL
.	16f/JJ
8GL 8D 8BB\	4d/
8GJ 8D 8BB\	.
*Xrep	*
=15	=15
*rep	*
!	!LO:TUP:b:problem=klamra łukowa
8GG/	24f/LL
.	24d/
.	24B/JJ
8GL 8D 8BB\	8.gg\L
8GJ 8D 8BB\	.
.	16b\Jk
*Xrep	*
=16	=16
!LO:TX:a:t=P:problem=mixed beam	!
8c\L	16dd\LL
.	16cc\JJ
8C/J	4cc 4e/
8r	.
=:|!	=:|!
*-	*-
!!!system-decoration: {s1,s2}
!!!ENC: Marta Lawrence
!!!END: 2020-12-15
!!!ENC: Tomasz Grochalski
!!!END: 2020-06-15
